X: 100
T: Liaowang zai shanding By the top of the mountain
%%abc-version 2.0
%%abcx-abcm2ps-target-version 5.9.1 (29 Sep 2008)
%%abc-creator hum2abc beta
%%abcx-conversion-date 2013/10/02 07:44:27
%%abc-edited-by Helmut Schaffrath
%%humdrum-veritas 2742542217
%%humdrum-veritas-data 4205707409
%%continueall 1
%%barnumbers 0
L: 1/16
M: 2/4
K: C
C2 C D E2 G A [I:setbarnb 1]| 
G2 D EC4 | 
A,2 C D E2 G2 | 
D8 | 
E,2 G, A,D4 | 
C D C A,G,4 | 
E,2 D, E, A,2 C D | 
G,8 | 
C2 C D E2 G A | 
G2 D EC4 | 
A,2 C D E2 G2 | 
D8 | 
E,2 G, A,D4 | 
C D C A,G,4 | 
E,2 D, E, A,2 C D | 
G,8 |]  



